X:1
T:En languissant
T:Pierre Certon
T:Source : Livre premier contenant 29 chansons nouvelles à 4 parties---Paris---P.Attaignant---1535. Editor : André Vierendeels (10/12/17). Notes : Original clefs : C1, C3, C3, F3 Original note values have been halved Editorial accidentals above the staff Square brackets indicate ligatures
T:En languissant avoir
T:©
T:©
C:Pierre Certon
Z:©
%%score [ 1 [ 2 3 4 ] ]
L:1/8
Q:1/4=100
M:2/2
K:F
V:1 treble nm="Soprano" snm="S"
V:2 treble-8 nm="Tenor 1" snm="T 1"
V:3 treble-8 nm="Tenor 2" snm="T 2"
V:4 treble-8 nm="Tenor 3" snm="T 3"
V:1
 B6 A2 | G2 F4 E2 | F4 z4 | z4 G2 A2 | B2 c2 A4 | G2 G4 c2- | cBAG A2 B2- | B2 A4 G2- | %8
w: En lan-|guis- sant a-|voir|se- cours|i'at- tens, se-|cours i'at- tens,|_ _ _ _ _ _||
 G2 F2 G2 G2 | A2 B3 A d2- | d2 c2 d2 d2 | f3 e d2 c2 | B2 A2 B4 | AGAB c2 B2- | B2 A2 B4 | %15
w: * * * mais|le lan- * *|* * guir si|tres _ _ fort|me tor- men-||* * te,|
 z2 F2 G2 G2 | F2 F2 G2 B2- | B2 A4 G2 | A4 A4 |: z4 B4- | B2 A2 G2 F2- | F2 E2 F4 | z8 | %23
w: que por cer-|tain ie croy que|_ mort pre-|sen- te,|me|_ vaul- * *|* droyt mieulx||
 G2 A2 B2 c2 | A4 G2 G2- | G2 c3 BAG | A2 B4 A2- | A2 G4 F2 | G8 :| %29
w: qu'at- * * ten-|* dre si|_ long- * * *|||temps.|
V:2
 f6 e2 | d4 c4 | A4 d2 e2 | f3 g e2 d2- | d2 c2 d3 c | BA G2 c3 B | AG F2 f4- | f2 e4 c2 | d8 | %9
w: En lan-|guis- sant|a- voir se-|cours _ _ i'at-|||||tens,|
 z2 d2 defg | a2 a2 f2 g2 | a2 a2 d2 f2 | g2 f4 e2 | f4 g2 e2 | f4 d2 d2 | c2 d2 G4 | A2 A2 B2 B2 | %17
w: mais le _ _ _|_ lan- guir si|tres fort me tor-|men- * *||* te, que|por cer- tain|ie croy que mort|
 c2 c2 d4 | e4 f4 |: z4 f4- | f2 e2 d4 | c4 A4 | d2 e2 f3 g | e2 d4 c2 | d3 c BA G2 | c3 B AG F2 | %26
w: pre- sen- *|* te,|me|_ _ vaul-|droyt mieulx|qu'at- ten- * *|||* * * * si|
 f6 e2- | e2 c2 d4 | B8 :| %29
w: long- *||temps.|
V:3
 d6 c2 | B2 A2 G4 | F4 z2 G2 | A2 B2 c2 A2 | G2 g4 f2 | g3 f ed e2 | c2 f3 edc | d2 c3 BAG | %8
w: En lan-|* * guis-|sant a-|voir se- cours _|_ i'at- *||||
 A4 G4 | z2 g2 f2 ed | e4 d4 | z2 d2 f3 e | d2 c2 B3 c | defd edcB | c4 B4 | z2 A2 B2 c2 | %16
w: * tens,|mais le lan- *|* guir|si fort _|_ me tor- *|men- * * * * * * *|* te,|que por cer-|
 d3 c d2 e2 | f2 e4 d2- | d2 c2 d4 |: z4 d4- | d2 c2 B2 A2 | G4 F4 | z2 G2 A2 B2 | c2 A2 G2 g2- | %24
w: tain ie croy que|mort pre- sen-|* * te,|me|_ vaul- * *|droyt mieulx|qu'at- ten- *|* * dre si|
 g2 f2 g3 f | ed e2 c2 f2- | fedc d2 c2- | cBAG A4 | G8 :| %29
w: _ _ long- *||||temps.|
V:4
 B,8 | B,4 C4 | D4 z4 | z2 D2 E2 F2 | G2 E2 D4 | E4 C2 C2 | F3 E DC B,2- | B,2 C2 E4 | D4 z2 G2 | %9
w: En|lan- guis-|sant|a- voir se-|* cours i'at|_ _ tens,|_ _ _ _ _||* mais|
 F2 G2 D4 | z2 A2 B2 G2 | d3 c B2 A2 | B2 F2 G4 | F4 E2 G2 | F4 B,2 B,2 | F4 E4 | D2 D2 G2 G2 | %17
w: le lan- guir|si tres fort|me _ _ tor-|men- * *||* te, que|por cer-|tain ie croy que|
 A2 A2 B4 | A4 D4 |: z4 B,4- | B,4 B,4 | C4 D4 |"^#" z4 z2 D2 | E2 F2 G2 E2 | D4 E4 | C2 C2 F3 E | %26
w: mort pre- sen-|* te,|me|_ vaul-|droyt mieulx|qu'at-|ten- * * *||dre si long- *|
 DC B,4 C2 | E4 D4 | G8 :| %29
w: ||temps.|

